icons/op-comments-24.svg

<svg width="24" height="24" viewBox="0 0 24 24" fill="none" xmlns="http://www.w3.org/2000/svg">
<path d="M6.85714 4C6.09938 4 5.37266 4.32613 4.83684 4.90664C4.30102 5.48715 4 6.27449 4 7.09545V13.2864C4 13.6929 4.0739 14.0954 4.21749 14.4709C4.36107 14.8465 4.57153 15.1877 4.83684 15.4752C5.37266 16.0557 6.09938 16.3818 6.85714 16.3818H7.42857V18.7864C7.42853 19.0194 7.49046 19.2476 7.60695 19.4436C7.72343 19.6395 7.88955 19.795 8.08544 19.8914C8.28133 19.9878 8.4987 20.021 8.71155 19.9871C8.92441 19.9532 9.12374 19.8535 9.28571 19.7001L12.7863 16.3818H17.1429C17.5181 16.3818 17.8896 16.3017 18.2362 16.1462C18.5829 15.9906 18.8979 15.7626 19.1632 15.4752C19.4285 15.1877 19.6389 14.8465 19.7825 14.4709C19.9261 14.0954 20 13.6929 20 13.2864V7.09545C20 6.27449 19.699 5.48715 19.1632 4.90664C18.6273 4.32613 17.9006 4 17.1429 4H6.85714Z" fill="black"/>
</svg>

<svg xmlns="http://www.w3.org/2000/svg" width="24" height="24" viewBox="0 0 24 24"><path d="M6.857 4c-.758 0-1.484.326-2.02.907A3.227 3.227 0 0 0 4 7.095v6.191c0 .407.074.809.217 1.185.144.376.355.717.62 1.004a2.748 2.748 0 0 0 2.02.907h.572v2.404c0 .233.061.462.178.658.116.196.283.351.478.447.196.097.414.13.627.096.212-.034.412-.133.574-.287l3.5-3.318h4.357c.375 0 .747-.08 1.093-.236a2.83 2.83 0 0 0 .927-.671c.265-.287.476-.628.619-1.004.144-.376.218-.778.218-1.185V7.095c0-.821-.301-1.608-.837-2.188A2.748 2.748 0 0 0 17.143 4H6.857Z"/></svg>
